third_party/noto/noto_2/emoji_u1f6aa.svg

<svg enable-background="new 0 0 128 128" version="1.1" viewBox="0 0 128 128" xmlns="http://www.w3.org/2000/svg"><path d="m33.28 123.87 61.43 0.13c1.22 0 2.2-0.89 2.2-1.99v-115.89c0-1.1-0.98-1.99-2.19-1.99l-61.43-0.13c-1.22 0-2.2 0.89-2.2 1.99v115.88c0 1.1 0.98 2 2.19 2z" fill="#B06542"/><path d="m78.72 20.72v30.32h-29.44v-30.32h29.44m4.91-5h-39.26v40.32h39.26v-40.32z" fill="#874D36"/><polygon points="83.63 15.9 78.53 20.72 78.72 20.72 78.72 51.04 49.65 51.04 44.37 56.04 83.63 56.04" fill="#C87D5E"/><path d="m78.72 78.96v28.32h-29.44v-28.32h29.44m4.91-5h-39.26v38.32h39.26v-38.32z" fill="#874D36"/><polygon points="83.63 74.14 78.53 78.96 78.72 78.96 78.72 107.28 49.65 107.28 44.37 112.28 83.63 112.28" fill="#C87D5E"/><circle cx="44.18" cy="66" r="5.25" fill="#874D36"/><circle cx="42.14" cy="64.45" r="5.25" fill="#BDBDBD"/><path d="m43.38 61.11c0.13 0.65-0.25 0.97-0.79 1.36s-1.21 0.7-1.7 1.53c-0.35 0.59-0.46 1.37-1.03 1.76-0.56 0.38-1.2 0.31-1.5-0.36-0.43-0.95-0.44-2.6 0.77-3.95 1.16-1.29 3.93-1.98 4.25-0.34z" fill="#eee"/></svg>

<?xml version="1.0" encoding="utf-8"?>
<!-- Generator: Adobe Illustrator 25.2.3, SVG Export Plug-In . SVG Version: 6.00 Build 0)  -->
<svg version="1.1" id="Layer_1" xmlns="http://www.w3.org/2000/svg" xmlns:xlink="http://www.w3.org/1999/xlink" x="0px" y="0px"
	 viewBox="0 0 128 128" style="enable-background:new 0 0 128 128;" xml:space="preserve">
<g>
	<path style="fill:#B06542;" d="M33.28,123.87L94.71,124c1.22,0,2.2-0.89,2.2-1.99V6.12c0-1.1-0.98-1.99-2.19-1.99L33.29,4
		c-1.22,0-2.2,0.89-2.2,1.99v115.88C31.09,122.97,32.07,123.87,33.28,123.87z"/>
	<g>
		<g>
			<path style="fill:#874D36;" d="M78.72,20.72v30.32H49.28V20.72H78.72 M83.63,15.72H44.37v40.32h39.26V15.72L83.63,15.72z"/>
			<polygon style="fill:#C87D5E;" points="83.63,15.9 78.53,20.72 78.72,20.72 78.72,51.04 49.65,51.04 44.37,56.04 83.63,56.04 			
				"/>
		</g>
		<g>
			<path style="fill:#874D36;" d="M78.72,78.96v28.32H49.28V78.96H78.72 M83.63,73.96H44.37v38.32h39.26V73.96L83.63,73.96z"/>
			<polygon style="fill:#C87D5E;" points="83.63,74.14 78.53,78.96 78.72,78.96 78.72,107.28 49.65,107.28 44.37,112.28 
				83.63,112.28 			"/>
		</g>
	</g>
	<g>
		<circle style="fill:#874D36;" cx="44.18" cy="66" r="5.25"/>
		<circle style="fill:#BDBDBD;" cx="42.14" cy="64.45" r="5.25"/>
		<path style="fill:#EEEEEE;" d="M43.38,61.11c0.13,0.65-0.25,0.97-0.79,1.36c-0.54,0.39-1.21,0.7-1.7,1.53
			c-0.35,0.59-0.46,1.37-1.03,1.76c-0.56,0.38-1.2,0.31-1.5-0.36c-0.43-0.95-0.44-2.6,0.77-3.95
			C40.29,60.16,43.06,59.47,43.38,61.11z"/>
	</g>
</g>
</svg>
